Newaita/actions/24/flag-red.svg

<svg height="24" viewBox="0 0 24 24" width="24" xmlns="http://www.w3.org/2000/svg"><path d="m3.472656 6.140625c-.273437 0-.496094.222656-.496094.496094v6.945312c0 .273438.222657.496094.496094.496094h7.304688l-.34375 1.371094c-.078125.3125.160156.613281.480468.613281h10.421876c.457031 0 .667968-.566406.324218-.867188l-3.542968-3.101562 3.542968-3.097656c.34375-.300782.132813-.871094-.324218-.871094h-7.800782l.339844-1.367188c.078125-.3125-.15625-.617187-.480469-.617187zm0 0" fill="#f44336"/><g fill="#424242"><path d="m2.976562 3.660156h.992188c.273438 0 .496094.222656.496094.496094v17.367188c0 .273437-.222656.496093-.496094.496093h-.992188c-.273437 0-.496093-.222656-.496093-.496093v-17.367188c0-.273438.222656-.496094.496093-.496094zm0 0"/><path d="m3.472656 2.171875c.824219 0 1.488282.667969 1.488282 1.488281 0 .824219-.664063 1.488282-1.488282 1.488282-.820312 0-1.488281-.664063-1.488281-1.488282 0-.820312.667969-1.488281 1.488281-1.488281zm0 0"/></g></svg>

<svg xmlns="http://www.w3.org/2000/svg" xmlns:xlink="http://www.w3.org/1999/xlink" width="24px" height="24px" viewBox="0 0 24 24" version="1.1">
<g id="surface1">
<path style=" stroke:none;fill-rule:nonzero;fill:rgb(95.686275%,26.274511%,21.176471%);fill-opacity:1;" d="M 3.472656 6.140625 C 3.199219 6.140625 2.976562 6.363281 2.976562 6.636719 L 2.976562 13.582031 C 2.976562 13.855469 3.199219 14.078125 3.472656 14.078125 L 10.777344 14.078125 L 10.433594 15.449219 C 10.355469 15.761719 10.59375 16.0625 10.914062 16.0625 L 21.335938 16.0625 C 21.792969 16.0625 22.003906 15.496094 21.660156 15.195312 L 18.117188 12.09375 L 21.660156 8.996094 C 22.003906 8.695312 21.792969 8.125 21.335938 8.125 L 13.535156 8.125 L 13.875 6.757812 C 13.953125 6.445312 13.71875 6.140625 13.394531 6.140625 Z M 3.472656 6.140625 "/>
     <defs>
  <style id="current-color-scheme" type="text/css">
   .ColorScheme-Text { color:#424242; } .ColorScheme-Highlight { color:#eeeeee; }
  </style>
 </defs>
<path style="fill:currentColor" class="ColorScheme-Text" d="M 2.976562 3.660156 L 3.96875 3.660156 C 4.242188 3.660156 4.464844 3.882812 4.464844 4.15625 L 4.464844 21.523438 C 4.464844 21.796875 4.242188 22.019531 3.96875 22.019531 L 2.976562 22.019531 C 2.703125 22.019531 2.480469 21.796875 2.480469 21.523438 L 2.480469 4.15625 C 2.480469 3.882812 2.703125 3.660156 2.976562 3.660156 Z M 2.976562 3.660156 "/>
     <defs>
  <style id="current-color-scheme" type="text/css">
   .ColorScheme-Text { color:#424242; } .ColorScheme-Highlight { color:#eeeeee; }
  </style>
 </defs>
<path style="fill:currentColor" class="ColorScheme-Text" d="M 3.472656 2.171875 C 4.296875 2.171875 4.960938 2.839844 4.960938 3.660156 C 4.960938 4.484375 4.296875 5.148438 3.472656 5.148438 C 2.652344 5.148438 1.984375 4.484375 1.984375 3.660156 C 1.984375 2.839844 2.652344 2.171875 3.472656 2.171875 Z M 3.472656 2.171875 "/>
</g>
</svg>
